svgs/sharp-light/receipt.svg

<svg xmlns="http://www.w3.org/2000/svg" viewBox="0 0 384 512"><!--! Font Awesome Pro 6.6.0 by @fontawesome - https://fontawesome.com License - https://fontawesome.com/license (Commercial License) Copyright 2024 Fonticons, Inc. --><path d="M87.9 452.2l-14.1-8L59 450.8l-27 12L32 49.2l27 12 14.8 6.6 14.1-8L129 36.3l48.7 24.3L192 67.8l14.3-7.2L255 36.3l41.1 23.5 14.1 8L325 61.2l27-12 0 413.5-27-12-14.8-6.6-14.1 8L255 475.7l-48.7-24.3L192 444.2l-14.3 7.2L129 475.7 87.9 452.2zM0 512l32-14.2L72 480l56 32 64-32 64 32 56-32 40 17.8L384 512l0-35 0-442 0-35L352 14.2 312 32 256 0 192 32 128 0 72 32 32 14.2 0 0 0 35 0 477l0 35zM96 144l-16 0 0 32 16 0 192 0 16 0 0-32-16 0L96 144zM80 336l0 32 16 0 192 0 16 0 0-32-16 0L96 336l-16 0zm16-96l-16 0 0 32 16 0 192 0 16 0 0-32-16 0L96 240z"/></svg>

<svg xmlns="http://www.w3.org/2000/svg" viewBox="0 0 384 512"><!--! Font Awesome Pro 6.4.2 by @fontawesome - https://fontawesome.com License - https://fontawesome.com/license (Commercial License) Copyright 2023 Fonticons, Inc. --><path d="M87.9 452.2l-14.1-8L59 450.8l-27 12V49.2l27 12 14.8 6.6 14.1-8L129 36.3l48.7 24.3L192 67.8l14.3-7.2L255 36.3l41.1 23.5 14.1 8L325 61.2l27-12V462.8l-27-12-14.8-6.6-14.1 8L255 475.7l-48.7-24.3L192 444.2l-14.3 7.2L129 475.7 87.9 452.2zM0 512l32-14.2L72 480l56 32 64-32 64 32 56-32 40 17.8L384 512V477 35 0L352 14.2 312 32 256 0 192 32 128 0 72 32 32 14.2 0 0V35 477v35zM96 144H80v32H96 288h16V144H288 96zM80 336v32H96 288h16V336H288 96 80zm16-96H80v32H96 288h16V240H288 96z"/></svg>
